status/24/media-playlist-repeat.svg

<?xml version="1.0" encoding="UTF-8" standalone="no"?>
<!-- Created with Inkscape (http://www.inkscape.org/) -->

<svg
   xmlns:svg="http://www.w3.org/2000/svg"
   xmlns="http://www.w3.org/2000/svg"
   xmlns:xlink="http://www.w3.org/1999/xlink"
   version="1.0"
   width="24"
   height="24"
   id="svg7854">
  <defs
     id="defs7856">
    <linearGradient
       id="linearGradient4111">
      <stop
         id="stop4113"
         style="stop-color:white;stop-opacity:1"
         offset="0" />
      <stop
         id="stop4115"
         style="stop-color:white;stop-opacity:0"
         offset="1" />
    </linearGradient>
    <linearGradient
       id="linearGradient5106">
      <stop
         id="stop5108"
         style="stop-color:#8fb3d9;stop-opacity:1"
         offset="0" />
      <stop
         id="stop5110"
         style="stop-color:#6195cb;stop-opacity:1"
         offset="1" />
    </linearGradient>
    <radialGradient
       cx="32.631359"
       cy="33.584618"
       r="16"
       fx="32.631359"
       fy="33.584618"
       id="radialGradient4107"
       xlink:href="#linearGradient5106"
       gradientUnits="userSpaceOnUse"
       gradientTransform="matrix(2.7824037,0,0,1.2781592,-74.498482,-26.200453)" />
    <linearGradient
       x1="22.146978"
       y1="15.722057"
       x2="22.401583"
       y2="34.612499"
       id="linearGradient4117"
       xlink:href="#linearGradient4111"
       gradientUnits="userSpaceOnUse" />
  </defs>
  <g
     id="layer1">
    <path
       d="m 4.2095324,4.4999347 c -2.0298977,0 -3.70974655,1.6466263 -3.70974655,3.6363784 l 0,6.5909359 C 0.49978585,16.717001 2.1796347,18.5 4.2095324,18.5 L 8,18.5 l 0,-3 -3.7904676,0 C 3.7724597,15.5 3.5,15.155678 3.5,14.727249 l 0,-6.5909359 C 3.5,7.7078852 3.7724597,7.5 4.2095324,7.5 l 15.5809356,0 c 0.437075,0 0.741949,0.2078845 0.741949,0.6363131 l 0,6.5909359 C 20.532417,15.155677 20.22754,15.5 19.790468,15.5 L 16.5,15.5 16.5,13.227243 10.887076,16.863622 16.5,20.5 l 0,-2 3.290468,0 c 2.029897,0 3.709745,-1.782999 3.709746,-3.772751 l 0,-6.5909359 c 0,-1.9897521 -1.679848,-3.6363784 -3.709746,-3.6363784 l -15.5809356,0 z"
       id="rect7213"
       style="fill:url(#radialGradient4107);fill-opacity:1;stroke:#245398;stroke-width:0.99999994;stroke-linecap:round;stroke-linejoin:round;stroke-miterlimit:4;stroke-opacity:1;stroke-dasharray:none;stroke-dashoffset:0.7" />
    <path
       d="m 13.5,15.75 c -2.044851,0 -3.75,1.705149 -3.75,3.75 l 0,9.0625 c 0,2.044851 1.705149,3.75 3.75,3.75 l 3.75,0 0,-1.5 -3.75,0 c -1.171568,0 -2.25,-1.078432 -2.25,-2.25 l 0,-9.0625 c 0,-1.171568 1.078431,-2.25 2.25,-2.25 l 21,0 c 1.171568,0 2.25,1.078438 2.25,2.25 l 0,9.0625 c 0,1.171568 -1.078431,2.25 -2.25,2.25 l -5,0 c -0.689741,-0.0015 -0.781214,-0.560259 -0.782697,-1.25 l 0,-0.625 -4.061053,2.5625 4.061053,2.5625 0,-0.5 c 0.0015,-0.689741 0.09296,-1.248517 0.782697,-1.25 l 5,0 c 2.044851,0 3.749999,-1.705148 3.75,-3.75 l 0,-9.0625 c 0,-2.044851 -1.705148,-3.75 -3.75,-3.75 l -21,0 z"
       transform="matrix(0.7419493,0,0,0.7272757,-5.8067832,-6.045563)"
       id="path7239"
       style="opacity:0.4;fill:none;stroke:url(#linearGradient4117);stroke-width:1.08906376;stroke-linecap:round;stroke-linejoin:miter;stroke-miterlimit:4;stroke-opacity:1;stroke-dashoffset:0.7" />
  </g>
</svg>

<?xml version="1.0" encoding="UTF-8" standalone="no"?>
<!-- Created with Inkscape (http://www.inkscape.org/) -->
<svg
   xmlns:dc="http://purl.org/dc/elements/1.1/"
   xmlns:cc="http://creativecommons.org/ns#"
   xmlns:rdf="http://www.w3.org/1999/02/22-rdf-syntax-ns#"
   xmlns:svg="http://www.w3.org/2000/svg"
   xmlns="http://www.w3.org/2000/svg"
   xmlns:xlink="http://www.w3.org/1999/xlink"
   xmlns:sodipodi="http://sodipodi.sourceforge.net/DTD/sodipodi-0.dtd"
   xmlns:inkscape="http://www.inkscape.org/namespaces/inkscape"
   width="24"
   height="24"
   id="svg7854"
   sodipodi:version="0.32"
   inkscape:version="0.46"
   version="1.0"
   sodipodi:docbase="/home/dobey/Projects/gnome-icon-theme/scalable/status"
   sodipodi:docname="media-playlist-repeat.svg"
   inkscape:output_extension="org.inkscape.output.svg.inkscape"
   inkscape:export-filename="/home/lapo/Icone/gnome-icon-theme/32x32/status/media-playlist-repeat.png"
   inkscape:export-xdpi="90"
   inkscape:export-ydpi="90">
  <defs
     id="defs7856">
    <linearGradient
       inkscape:collect="always"
       id="linearGradient4111">
      <stop
         style="stop-color:#ffffff;stop-opacity:1;"
         offset="0"
         id="stop4113" />
      <stop
         style="stop-color:#ffffff;stop-opacity:0;"
         offset="1"
         id="stop4115" />
    </linearGradient>
    <linearGradient
       id="linearGradient7344"
       inkscape:collect="always">
      <stop
         id="stop7346"
         offset="0"
         style="stop-color:#eeeeec;stop-opacity:1" />
      <stop
         id="stop7348"
         offset="1"
         style="stop-color:#92948f;stop-opacity:1" />
    </linearGradient>
    <linearGradient
       id="linearGradient7305">
      <stop
         id="stop7307"
         offset="0"
         style="stop-color:#ffffff;stop-opacity:1" />
      <stop
         style="stop-color:#ffffff;stop-opacity:0;"
         offset="0.20971029"
         id="stop7313" />
      <stop
         id="stop7329"
         offset="0.34936365"
         style="stop-color:#ffffff;stop-opacity:0.81065089;" />
      <stop
         style="stop-color:#ffffff;stop-opacity:0;"
         offset="0.42850056"
         id="stop7321" />
      <stop
         id="stop7323"
         offset="0.52134049"
         style="stop-color:#ffffff;stop-opacity:1;" />
      <stop
         style="stop-color:#ffffff;stop-opacity:0;"
         offset="0.55746967"
         id="stop7317" />
      <stop
         id="stop7319"
         offset="0.71001518"
         style="stop-color:#ffffff;stop-opacity:0.56804734;" />
      <stop
         style="stop-color:#ffffff;stop-opacity:0;"
         offset="0.74394959"
         id="stop7416" />
      <stop
         id="stop7309"
         offset="1"
         style="stop-color:#ffffff;stop-opacity:0" />
    </linearGradient>
    <linearGradient
       gradientTransform="translate(0.99986,-0.99986)"
       gradientUnits="userSpaceOnUse"
       y2="9.5285778"
       x2="4.2340817"
       y1="7"
       x1="4.9356742"
       id="linearGradient4278"
       xlink:href="#linearGradient2782"
       inkscape:collect="always" />
    <linearGradient
       gradientTransform="translate(1.0558751,-1.0558751)"
       gradientUnits="userSpaceOnUse"
       y2="12.23216"
       x2="13.401136"
       y1="6.5358186"
       x1="10.292191"
       id="linearGradient3851"
       xlink:href="#linearGradient2782"
       inkscape:collect="always" />
    <linearGradient
       gradientUnits="userSpaceOnUse"
       y2="4.998405"
       x2="10.041533"
       y1="16.849577"
       x1="10.041533"
       id="linearGradient3839"
       xlink:href="#linearGradient5106"
       inkscape:collect="always" />
    <linearGradient
       gradientUnits="userSpaceOnUse"
       y2="19.000235"
       x2="9.5909834"
       y1="6.8211656"
       x1="9.5909834"
       id="linearGradient3837"
       xlink:href="#linearGradient5106"
       inkscape:collect="always" />
    <radialGradient
       r="3.171875"
       fy="24.484375"
       fx="21.578125"
       cy="24.484375"
       cx="21.578125"
       gradientTransform="matrix(0.6999904,0,0,1.5806384,-4.449781,-26.712017)"
       gradientUnits="userSpaceOnUse"
       id="radialGradient3829"
       xlink:href="#linearGradient6889"
       inkscape:collect="always" />
    <linearGradient
       inkscape:collect="always"
       id="linearGradient6889">
      <stop
         style="stop-color:#000000;stop-opacity:1;"
         offset="0"
         id="stop6891" />
      <stop
         style="stop-color:#000000;stop-opacity:0;"
         offset="1"
         id="stop6893" />
    </linearGradient>
    <linearGradient
       id="linearGradient2782">
      <stop
         style="stop-color:white;stop-opacity:1;"
         offset="0"
         id="stop2784" />
      <stop
         style="stop-color:white;stop-opacity:0;"
         offset="1"
         id="stop2786" />
    </linearGradient>
    <linearGradient
       id="linearGradient5106">
      <stop
         style="stop-color:#8fb3d9;stop-opacity:1;"
         offset="0"
         id="stop5108" />
      <stop
         style="stop-color:#6195cb;stop-opacity:1;"
         offset="1"
         id="stop5110" />
    </linearGradient>
    <radialGradient
       inkscape:collect="always"
       xlink:href="#linearGradient7344"
       id="radialGradient3321"
       gradientUnits="userSpaceOnUse"
       gradientTransform="matrix(3.7501265,0,0,1.7574617,-92.58274,-27.71286)"
       cx="32.631359"
       cy="33.584618"
       fx="32.631359"
       fy="33.584618"
       r="16" />
    <linearGradient
       inkscape:collect="always"
       xlink:href="#linearGradient7305"
       id="linearGradient3323"
       gradientUnits="userSpaceOnUse"
       x1="-5.6568542"
       y1="41.63604"
       x2="64.346718"
       y2="3.0987194" />
    <radialGradient
       inkscape:collect="always"
       xlink:href="#linearGradient7344"
       id="radialGradient4100"
       gradientUnits="userSpaceOnUse"
       gradientTransform="matrix(3.7501265,0,0,1.7574617,-92.58274,-27.71286)"
       cx="32.631359"
       cy="33.584618"
       fx="32.631359"
       fy="33.584618"
       r="16" />
    <linearGradient
       inkscape:collect="always"
       xlink:href="#linearGradient7305"
       id="linearGradient4102"
       gradientUnits="userSpaceOnUse"
       x1="-5.6568542"
       y1="41.63604"
       x2="64.346718"
       y2="3.0987194" />
    <radialGradient
       inkscape:collect="always"
       xlink:href="#linearGradient5106"
       id="radialGradient4107"
       gradientUnits="userSpaceOnUse"
       gradientTransform="matrix(2.7824037,0,0,1.2781592,-74.498482,-26.200453)"
       cx="32.631359"
       cy="33.584618"
       fx="32.631359"
       fy="33.584618"
       r="16" />
    <linearGradient
       inkscape:collect="always"
       xlink:href="#linearGradient4111"
       id="linearGradient4117"
       x1="22.146978"
       y1="15.722057"
       x2="22.401583"
       y2="34.612499"
       gradientUnits="userSpaceOnUse" />
    <linearGradient
       inkscape:collect="always"
       xlink:href="#linearGradient7305"
       id="linearGradient4123"
       gradientUnits="userSpaceOnUse"
       x1="-5.6568542"
       y1="41.63604"
       x2="64.346718"
       y2="3.0987194" />
    <linearGradient
       inkscape:collect="always"
       xlink:href="#linearGradient7305"
       id="linearGradient4127"
       gradientUnits="userSpaceOnUse"
       x1="-5.6568542"
       y1="41.63604"
       x2="64.346718"
       y2="3.0987194" />
  </defs>
  <sodipodi:namedview
     id="base"
     pagecolor="#ffffff"
     bordercolor="#afafaf"
     borderopacity="1"
     gridtolerance="15.1"
     guidetolerance="10"
     objecttolerance="10"
     inkscape:pageopacity="0"
     inkscape:pageshadow="2"
     inkscape:zoom="15.881118"
     inkscape:cx="23.48479"
     inkscape:cy="10.693831"
     inkscape:document-units="px"
     inkscape:current-layer="layer1"
     width="48px"
     height="48px"
     inkscape:showpageshadow="false"
     inkscape:window-width="1440"
     inkscape:window-height="852"
     inkscape:window-x="0"
     inkscape:window-y="24"
     showgrid="true"
     inkscape:grid-points="false"
     showborder="true"
     showguides="false"
     inkscape:guide-bbox="false"
     inkscape:grid-bbox="true"
     inkscape:object-paths="false">
    <sodipodi:guide
       orientation="horizontal"
       position="8.6620581"
       id="guide7377" />
    <sodipodi:guide
       orientation="horizontal"
       position="6"
       id="guide7379" />
    <sodipodi:guide
       orientation="horizontal"
       position="36.062446"
       id="guide7492" />
    <sodipodi:guide
       orientation="horizontal"
       position="51"
       id="guide7046" />
    <sodipodi:guide
       orientation="horizontal"
       position="-17.5"
       id="guide7233" />
    <sodipodi:guide
       orientation="horizontal"
       position="-29"
       id="guide7235" />
    <sodipodi:guide
       orientation="horizontal"
       position="44.547727"
       id="guide6795" />
    <sodipodi:guide
       orientation="horizontal"
       position="16.970563"
       id="guide6797" />
    <sodipodi:guide
       orientation="horizontal"
       position="23.511301"
       id="guide6914" />
    <inkscape:grid
       id="GridFromPre046Settings"
       type="xygrid"
       originx="0px"
       originy="0px"
       spacingx="0.5px"
       spacingy="0.5px"
       color="#0000ff"
       empcolor="#0000ff"
       opacity="0.2"
       empopacity="0.4"
       empspacing="2"
       visible="true"
       enabled="true" />
  </sodipodi:namedview>
  <metadata
     id="metadata7859">
    <rdf:RDF>
      <cc:Work
         rdf:about="">
        <dc:format>image/svg+xml</dc:format>
        <dc:type
           rdf:resource="http://purl.org/dc/dcmitype/StillImage" />
        <dc:creator>
          <cc:Agent>
            <dc:title>Lapo Calamandrei</dc:title>
          </cc:Agent>
        </dc:creator>
        <dc:source />
        <cc:license
           rdf:resource="http://creativecommons.org/licenses/GPL/2.0/" />
        <dc:title>Media statusses</dc:title>
        <dc:subject>
          <rdf:Bag />
        </dc:subject>
      </cc:Work>
      <cc:License
         rdf:about="http://creativecommons.org/licenses/GPL/2.0/">
        <cc:permits
           rdf:resource="http://web.resource.org/cc/Reproduction" />
        <cc:permits
           rdf:resource="http://web.resource.org/cc/Distribution" />
        <cc:requires
           rdf:resource="http://web.resource.org/cc/Notice" />
        <cc:permits
           rdf:resource="http://web.resource.org/cc/DerivativeWorks" />
        <cc:requires
           rdf:resource="http://web.resource.org/cc/ShareAlike" />
        <cc:requires
           rdf:resource="http://web.resource.org/cc/SourceCode" />
      </cc:License>
    </rdf:RDF>
  </metadata>
  <g
     inkscape:label="Layer 1"
     inkscape:groupmode="layer"
     id="layer1">
    <path
       style="fill:url(#radialGradient4107);fill-opacity:1.0;stroke:#245398;stroke-width:0.99999994000000003;stroke-linecap:round;stroke-linejoin:round;stroke-miterlimit:4;stroke-dasharray:none;stroke-dashoffset:0.69999999999999996;stroke-opacity:1"
       d="M 4.2095324,4.4999347 C 2.1796347,4.4999347 0.49978585,6.146561 0.49978585,8.1363131 L 0.49978585,14.727249 C 0.49978585,16.717001 2.1796347,18.5 4.2095324,18.5 L 8,18.5 L 8,15.5 L 4.2095324,15.5 C 3.7724597,15.5 3.5,15.155678 3.5,14.727249 L 3.5,8.1363131 C 3.5,7.7078852 3.7724597,7.5 4.2095324,7.5 L 19.790468,7.5 C 20.227543,7.5 20.532417,7.7078845 20.532417,8.1363131 L 20.532417,14.727249 C 20.532417,15.155677 20.22754,15.5 19.790468,15.5 L 16.5,15.5 L 16.5,13.227243 L 10.887076,16.863622 L 16.5,20.5 L 16.5,18.5 L 19.790468,18.5 C 21.820365,18.5 23.500213,16.717001 23.500214,14.727249 L 23.500214,8.1363131 C 23.500214,6.146561 21.820366,4.4999347 19.790468,4.4999347 L 4.2095324,4.4999347 z"
       id="rect7213"
       sodipodi:nodetypes="cccccccccccccccccccccccc" />
    <path
       transform="matrix(0.7419493,0,0,0.7272757,-5.8067832,-6.045563)"
       style="opacity:0.4;fill:none;fill-opacity:1;stroke:url(#linearGradient4117);stroke-width:1.08906376;stroke-linecap:round;stroke-linejoin:miter;stroke-miterlimit:4;stroke-dashoffset:0.7;stroke-opacity:1"
       d="M 13.5,15.75 C 11.455149,15.75 9.75,17.455149 9.75,19.5 L 9.75,28.5625 C 9.75,30.607351 11.455149,32.3125 13.5,32.3125 L 17.25,32.3125 L 17.25,30.8125 L 13.5,30.8125 C 12.328432,30.8125 11.25,29.734068 11.25,28.5625 L 11.25,19.5 C 11.25,18.328432 12.328431,17.25 13.5,17.25 L 34.5,17.25 C 35.671568,17.25 36.75,18.328438 36.75,19.5 L 36.75,28.5625 C 36.75,29.734068 35.671569,30.8125 34.5,30.8125 L 29.5,30.8125 C 28.810259,30.811017 28.718786,30.252241 28.717303,29.5625 L 28.717303,28.9375 L 24.65625,31.5 L 28.717303,34.0625 L 28.717303,33.5625 C 28.718786,32.872759 28.810259,32.313983 29.5,32.3125 L 34.5,32.3125 C 36.544851,32.3125 38.249999,30.607352 38.25,28.5625 L 38.25,19.5 C 38.25,17.455149 36.544852,15.75 34.5,15.75 L 13.5,15.75 z"
       id="path7239"
       sodipodi:nodetypes="cccccccccccccccccccccccccc" />
  </g>
</svg>
